dist/img/svg/vk-19.svg

<svg width="19" height="11" viewBox="0 0 19 11" fill="none" xmlns="http://www.w3.org/2000/svg">
<path d="M18.174 8.41206C17.7603 7.97615 17.2902 7.58545 16.8355 7.20762C16.6739 7.07324 16.5067 6.93431 16.3456 6.79617C15.883 6.39914 15.8662 6.24998 16.2324 5.79901C16.4858 5.48815 16.7545 5.17688 17.0143 4.87585C17.25 4.60273 17.4937 4.32029 17.7272 4.03694L17.7752 3.97868C18.2216 3.43643 18.6833 2.87574 18.929 2.19934C18.9928 2.02089 19.0598 1.75829 18.9066 1.5387C18.7535 1.3193 18.4566 1.25236 18.2465 1.22109C18.1426 1.20562 18.0394 1.20351 17.9436 1.20351L15.0201 1.20168L14.996 1.20149C14.5539 1.20149 14.256 1.38435 14.0853 1.76058C13.9224 2.12006 13.7434 2.50285 13.5391 2.86683C13.1326 3.59161 12.6163 4.42639 11.8692 5.12261L11.8376 5.15223C11.7494 5.23546 11.6494 5.32971 11.5764 5.32971C11.5652 5.32971 11.553 5.32783 11.5392 5.32402C11.3844 5.27109 11.2806 4.94223 11.2853 4.78926C11.2853 4.78715 11.2854 4.78504 11.2854 4.78293L11.2834 1.81668C11.2834 1.8064 11.2825 1.79621 11.281 1.78602C11.2066 1.30382 11.0419 1.00367 10.4194 0.896649C10.4029 0.893757 10.386 0.892334 10.3692 0.892334H7.32929C6.83402 0.892334 6.56113 1.06904 6.30461 1.33353C6.23537 1.40423 6.09123 1.55142 6.16267 1.72996C6.23516 1.91117 6.47045 1.94992 6.54706 1.96249C6.92738 2.02603 7.14175 2.23024 7.20247 2.58705C7.30847 3.20665 7.3215 3.86799 7.24347 4.66834C7.22171 4.89077 7.17867 5.06256 7.10775 5.20934C7.09128 5.24359 7.03286 5.35538 6.97329 5.35542C6.95436 5.35542 6.89961 5.3489 6.79987 5.28858C6.56406 5.14676 6.39153 4.94439 6.19039 4.69441C5.50612 3.84549 4.93183 2.91031 4.43448 1.83477C4.25002 1.43885 3.90553 1.21719 3.46403 1.21067C2.97891 1.2042 2.53908 1.20108 2.1196 1.20108C1.66126 1.20108 1.23633 1.2048 0.821398 1.21237C0.466189 1.21788 0.220491 1.31135 0.0912101 1.4904C-0.0382804 1.66959 -0.0298604 1.90497 0.116261 2.18989C1.28596 4.47267 2.34652 6.13245 3.55513 7.57182C4.402 8.57899 5.25143 9.27613 6.22804 9.76558C7.25696 10.2823 8.41003 10.5335 9.75305 10.5335C9.90529 10.5335 10.0627 10.5303 10.2214 10.5237C11.0018 10.4904 11.2914 10.2424 11.328 9.57538C11.3454 9.23449 11.3878 8.87699 11.5787 8.5721C11.6992 8.38002 11.8116 8.38002 11.8485 8.38002C11.9196 8.38002 12.0078 8.40876 12.1025 8.46261C12.2724 8.55994 12.418 8.69032 12.5374 8.80423C12.6498 8.91243 12.7609 9.02175 12.8722 9.1311C13.1122 9.36713 13.3604 9.61114 13.6197 9.84257C14.1873 10.3495 14.8125 10.5724 15.5306 10.524H18.211C18.2167 10.524 18.2224 10.5238 18.2281 10.5235C18.4952 10.508 18.7265 10.378 18.8628 10.1667C19.0315 9.90496 19.0281 9.57106 18.8537 9.27329C18.6557 8.93658 18.3989 8.64891 18.174 8.41206Z" fill="white"/>
</svg>

<svg width="19" height="11" viewBox="0 0 19 11" fill="none" xmlns="http://www.w3.org/2000/svg"><path d="M18.174 8.412c-.414-.436-.884-.827-1.338-1.204-.162-.135-.33-.274-.49-.412-.463-.397-.48-.546-.114-.997.254-.31.523-.622.782-.923.236-.273.48-.556.713-.84l.048-.057c.447-.543.908-1.103 1.154-1.78.064-.178.13-.44-.022-.66-.154-.22-.45-.287-.66-.318a2.051 2.051 0 00-.303-.017l-2.924-.002h-.024c-.442 0-.74.182-.91.559-.164.36-.343.742-.547 1.106-.406.725-.923 1.56-1.67 2.256l-.031.03c-.089.082-.189.177-.262.177a.14.14 0 01-.037-.006c-.155-.053-.258-.382-.254-.535v-.006l-.002-2.966c0-.01 0-.02-.002-.031-.074-.482-.24-.782-.862-.89a.292.292 0 00-.05-.004H7.33c-.495 0-.768.177-1.024.442-.07.07-.214.217-.142.396.072.181.307.22.384.232.38.064.595.268.655.625.106.62.12 1.281.041 2.081a1.57 1.57 0 01-.135.541c-.017.035-.075.146-.135.146-.019 0-.073-.006-.173-.066-.236-.142-.408-.345-.61-.595a13.554 13.554 0 01-1.756-2.86 1.039 1.039 0 00-.97-.623 92.389 92.389 0 00-2.643.001c-.355.006-.6.1-.73.278-.13.18-.12.415.025.7 1.17 2.283 2.23 3.942 3.44 5.382.846 1.007 1.695 1.704 2.672 2.194 1.029.516 2.182.768 3.525.768.152 0 .31-.004.468-.01.78-.034 1.07-.282 1.107-.949.017-.34.06-.698.25-1.003.121-.192.234-.192.27-.192.072 0 .16.029.254.083.17.097.316.227.435.341.113.108.224.218.335.327.24.236.488.48.748.712.567.507 1.193.73 1.91.681h2.698a.796.796 0 00.635-.357c.169-.262.165-.596-.01-.894a4.842 4.842 0 00-.679-.86z" fill="#fff"/></svg>
